packages/assets/static/images/icons/person-simple-swim.svg

<svg width="24" height="24" viewBox="0 0 24 24" xmlns="http://www.w3.org/2000/svg">
<path d="M16.5005 9.75C17.0938 9.75 17.6738 9.57405 18.1672 9.24441C18.6605 8.91477 19.045 8.44623 19.2721 7.89805C19.4992 7.34987 19.5586 6.74667 19.4428 6.16473C19.3271 5.58279 19.0413 5.04824 18.6218 4.62868C18.2022 4.20912 17.6677 3.9234 17.0857 3.80765C16.5038 3.69189 15.9006 3.7513 15.3524 3.97836C14.8042 4.20543 14.3357 4.58994 14.0061 5.08329C13.6764 5.57664 13.5005 6.15666 13.5005 6.75C13.5005 7.54565 13.8165 8.30871 14.3791 8.87132C14.9418 9.43393 15.7048 9.75 16.5005 9.75ZM16.5005 5.25C16.7971 5.25 17.0871 5.33797 17.3338 5.5028C17.5805 5.66762 17.7727 5.90189 17.8863 6.17598C17.9998 6.45007 18.0295 6.75167 17.9716 7.04264C17.9138 7.33361 17.7709 7.60088 17.5611 7.81066C17.3513 8.02044 17.0841 8.1633 16.7931 8.22118C16.5021 8.27906 16.2005 8.24935 15.9264 8.13582C15.6523 8.02229 15.4181 7.83003 15.2533 7.58336C15.0884 7.33668 15.0005 7.04667 15.0005 6.75C15.0005 6.35218 15.1585 5.97065 15.4398 5.68934C15.7211 5.40804 16.1026 5.25 16.5005 5.25ZM20.828 17.3663C20.9554 17.5187 21.017 17.7155 20.9995 17.9135C20.9819 18.1114 20.8865 18.2942 20.7342 18.4219C19.1067 19.7709 17.6536 20.25 16.328 20.25C14.5861 20.25 13.0636 19.4231 11.647 18.6563C9.27046 17.3663 7.21827 16.2516 4.23421 18.7256C4.15855 18.7894 4.071 18.8377 3.97662 18.8675C3.88224 18.8973 3.78288 18.9081 3.68429 18.8994C3.58569 18.8906 3.48981 18.8624 3.40216 18.8164C3.31451 18.7704 3.23684 18.7076 3.17361 18.6314C3.11038 18.5552 3.06286 18.4673 3.03377 18.3727C3.00468 18.2781 2.99461 18.1787 3.00414 18.0801C3.01367 17.9816 3.0426 17.886 3.08928 17.7987C3.13595 17.7114 3.19944 17.6342 3.27609 17.5716C7.04202 14.4506 9.86859 15.9844 12.3633 17.3381C14.7398 18.6291 16.792 19.7428 19.7761 17.2688C19.9288 17.143 20.1251 17.0826 20.3221 17.1009C20.5191 17.1192 20.7009 17.2145 20.828 17.3663ZM3.2714 13.8206C3.19475 13.8833 3.13126 13.9604 3.08459 14.0477C3.03791 14.135 3.00898 14.2307 2.99945 14.3292C2.98993 14.4277 3 14.5272 3.02908 14.6218C3.05817 14.7164 3.1057 14.8043 3.16892 14.8805C3.23215 14.9566 3.30983 15.0195 3.39747 15.0655C3.48512 15.1115 3.58101 15.1397 3.6796 15.1484C3.7782 15.1572 3.87755 15.1464 3.97193 15.1165C4.06631 15.0867 4.15386 15.0385 4.22952 14.9747C7.21359 12.5016 9.26577 13.6153 11.6423 14.9053C13.0589 15.6741 14.5814 16.4991 16.3233 16.4991C17.6489 16.4991 19.102 16.02 20.7295 14.6709C20.8062 14.6083 20.8697 14.5311 20.9163 14.4438C20.963 14.3565 20.9919 14.2609 21.0015 14.1624C21.011 14.0638 21.0009 13.9644 20.9718 13.8698C20.9428 13.7752 20.8952 13.6873 20.832 13.6111C20.7688 13.5349 20.6911 13.4721 20.6034 13.4261C20.5158 13.3801 20.4199 13.3519 20.3213 13.3431C20.2227 13.3344 20.1234 13.3452 20.029 13.375C19.9346 13.4048 19.8471 13.4531 19.7714 13.5169C19.2292 13.9825 18.6198 14.3637 17.9639 14.6475L12.9164 9.60188C12.0129 8.69455 10.9384 7.97534 9.75519 7.48583C8.57196 6.99632 7.30344 6.74622 6.02296 6.75H3.75046C3.55155 6.75 3.36078 6.82902 3.22013 6.96967C3.07948 7.11032 3.00046 7.30109 3.00046 7.5C3.00046 7.69891 3.07948 7.88968 3.22013 8.03033C3.36078 8.17098 3.55155 8.25 3.75046 8.25H6.02296C7.3938 8.24737 8.74351 8.5877 9.94921 9.24L7.1714 12.0159C5.98359 12.1266 4.69452 12.6413 3.2714 13.8206ZM11.8561 10.6641L16.1808 14.9878C14.8683 14.9475 13.6608 14.295 12.3586 13.5881C11.3508 13.0406 10.2876 12.4631 9.13171 12.1772L11.2186 10.0903C11.441 10.2703 11.6538 10.4618 11.8561 10.6641Z"/>
</svg>

<svg viewBox="0 0 24 24" xmlns="http://www.w3.org/2000/svg" aria-hidden="true" fill="currentColor"><path d="M16.5 9.75a3 3 0 1 0 0-6 3 3 0 0 0 0 6m0-4.5a1.5 1.5 0 1 1 0 3 1.5 1.5 0 0 1 0-3m4.328 12.116a.75.75 0 0 1-.094 1.056c-1.627 1.349-3.08 1.828-4.406 1.828-1.742 0-3.264-.827-4.681-1.594-2.377-1.29-4.429-2.404-7.413.07a.75.75 0 1 1-.958-1.154c3.766-3.121 6.593-1.588 9.087-.234 2.377 1.291 4.429 2.405 7.413-.07a.75.75 0 0 1 1.052.098M3.271 13.821a.75.75 0 1 0 .959 1.154c2.984-2.473 5.036-1.36 7.412-.07 1.417.77 2.94 1.594 4.681 1.594 1.326 0 2.779-.479 4.407-1.828a.75.75 0 0 0 .102-1.06.75.75 0 0 0-1.06-.094 7.1 7.1 0 0 1-1.808 1.13l-5.048-5.045A9.7 9.7 0 0 0 6.023 6.75H3.75a.75.75 0 0 0 0 1.5h2.273a8.2 8.2 0 0 1 3.926.99l-2.778 2.776c-1.187.11-2.476.625-3.9 1.805m8.585-3.157 4.325 4.324c-1.313-.04-2.52-.693-3.822-1.4-1.008-.547-2.071-1.125-3.227-1.41l2.087-2.088q.333.27.637.574"/></svg>
